polaris-icons/icons/newicons/PrintMajor.svg

<svg width="20" height="20" viewBox="0 0 20 20" fill="none" xmlns="http://www.w3.org/2000/svg">
<path d="M8 14C8 13.7239 8.22386 13.5 8.5 13.5H10.5C10.7761 13.5 11 13.7239 11 14C11 14.2761 10.7761 14.5 10.5 14.5H8.5C8.22386 14.5 8 14.2761 8 14Z" fill="black"/>
<path d="M8.5 11.5C8.22386 11.5 8 11.7239 8 12C8 12.2761 8.22386 12.5 8.5 12.5H11.5C11.7761 12.5 12 12.2761 12 12C12 11.7239 11.7761 11.5 11.5 11.5H8.5Z" fill="black"/>
<path fill-rule="evenodd" clip-rule="evenodd" d="M14.9999 6L15 6.01919C15.3922 6.04313 15.6705 6.09697 15.908 6.21799C16.2843 6.40973 16.5903 6.71569 16.782 7.09202C17 7.51984 17 8.0799 17 9.2V9.8C17 10.9201 17 11.4802 16.782 11.908C16.5903 12.2843 16.2843 12.5903 15.908 12.782C15.6705 12.903 15.3922 12.9569 15 12.9808L15 13.9404C15.0001 14.1847 15.0001 14.4497 14.9814 14.6789C14.9602 14.9385 14.9077 15.2813 14.7275 15.635C14.4878 16.1054 14.1054 16.4878 13.635 16.7275C13.2813 16.9077 12.9385 16.9602 12.6789 16.9814C12.4497 17.0001 12.1847 17.0001 11.9404 17H8.05957C7.81525 17.0001 7.55035 17.0001 7.32105 16.9814C7.06154 16.9602 6.71868 16.9077 6.36502 16.7275C5.89462 16.4878 5.51217 16.1054 5.27248 15.635C5.09229 15.2813 5.03981 14.9385 5.01861 14.6789C4.99987 14.4497 4.99994 14.1848 4.99999 13.9404L5 12.9808C4.60779 12.9569 4.32953 12.903 4.09202 12.782C3.71569 12.5903 3.40973 12.2843 3.21799 11.908C3 11.4802 3 10.9201 3 9.8V9.2C3 8.0799 3 7.51984 3.21799 7.09202C3.40973 6.71569 3.71569 6.40973 4.09202 6.21799C4.32954 6.09697 4.60781 6.04313 5.00005 6.01919L5.00005 6C5.00082 5.01165 5.01338 4.49359 5.21799 4.09202C5.40973 3.71569 5.71569 3.40973 6.09202 3.21799C6.51984 3 7.0799 3 8.2 3H11.8C12.9201 3 13.4802 3 13.908 3.21799C14.2843 3.40973 14.5903 3.71569 14.782 4.09202C14.9866 4.49359 14.9992 5.01165 14.9999 6ZM8.2 4.5H11.8C12.3848 4.5 12.7332 4.50117 12.9914 4.52227C13.1491 4.53514 13.2153 4.55214 13.2331 4.55765C13.3224 4.60469 13.3953 4.67765 13.4424 4.76693C13.4479 4.78469 13.4649 4.85094 13.4777 5.00855C13.4963 5.23591 13.4994 5.53312 13.4999 6H6.50008C6.50056 5.53312 6.50369 5.23591 6.52227 5.00855C6.53514 4.85093 6.55214 4.78468 6.55765 4.76692C6.60469 4.67765 6.67765 4.60469 6.76692 4.55765C6.78468 4.55214 6.85093 4.53514 7.00855 4.52227C7.26681 4.50117 7.6152 4.5 8.2 4.5ZM13.8 7.5C14.3848 7.5 14.7332 7.50117 14.9914 7.52227C15.1491 7.53514 15.2153 7.55214 15.2331 7.55765C15.3224 7.60469 15.3953 7.67765 15.4424 7.76693C15.4479 7.78469 15.4649 7.85094 15.4777 8.00855C15.4988 8.26681 15.5 8.6152 15.5 9.2V9.8C15.5 10.3848 15.4988 10.7332 15.4777 10.9914C15.4649 11.1491 15.4479 11.2153 15.4424 11.2331C15.3953 11.3224 15.3224 11.3953 15.2331 11.4424C15.2156 11.4478 15.1515 11.4642 15 11.477V10.9L15 10.8865C15.0001 10.8333 15.0003 10.7205 14.9916 10.6137C14.9806 10.4792 14.9486 10.229 14.8093 9.95552C14.6415 9.62623 14.3738 9.35852 14.0445 9.19074C13.771 9.05141 13.5208 9.01937 13.3863 9.00839C13.2795 8.99966 13.1667 8.99988 13.1135 8.99998L13.1 9H6.9L6.88654 8.99998C6.83332 8.99988 6.72047 8.99966 6.61365 9.00839C6.4792 9.01937 6.22896 9.05141 5.95552 9.19074C5.62623 9.35852 5.35852 9.62623 5.19074 9.95552C5.05141 10.229 5.01937 10.4792 5.00839 10.6137C4.99966 10.7205 4.99988 10.8333 4.99998 10.8865L5 10.9V11.477C4.84852 11.4642 4.78436 11.4478 4.76692 11.4424C4.67765 11.3953 4.60469 11.3224 4.55765 11.2331C4.55214 11.2153 4.53514 11.1491 4.52227 10.9914C4.50117 10.7332 4.5 10.3848 4.5 9.8V9.2C4.5 8.6152 4.50117 8.26681 4.52227 8.00855C4.53514 7.85093 4.55214 7.78468 4.55765 7.76692C4.60469 7.67765 4.67765 7.60469 4.76692 7.55765C4.78468 7.55214 4.85093 7.53514 5.00855 7.52227C5.26681 7.50117 5.6152 7.5 6.2 7.5H13.8ZM13.2383 4.55945L13.2352 4.55833C13.2374 4.55904 13.2383 4.55943 13.2383 4.55945ZM13.4405 4.76175C13.4406 4.76169 13.441 4.76264 13.4417 4.76478L13.4405 4.76175ZM6.55945 4.76175L6.55833 4.76478C6.55904 4.76264 6.55943 4.76169 6.55945 4.76175ZM6.76175 4.55945C6.76169 4.55943 6.76264 4.55904 6.76478 4.55833L6.76175 4.55945ZM6.52725 10.6365C6.5 10.69 6.5 10.76 6.5 10.9V13.9C6.5 14.4601 6.5 14.7401 6.60899 14.954C6.70487 15.1422 6.85785 15.2951 7.04601 15.391C7.25992 15.5 7.53995 15.5 8.1 15.5H11.9C12.4601 15.5 12.7401 15.5 12.954 15.391C13.1422 15.2951 13.2951 15.1422 13.391 14.954C13.5 14.7401 13.5 14.4601 13.5 13.9V10.9C13.5 10.76 13.5 10.69 13.4728 10.6365C13.4488 10.5895 13.4105 10.5512 13.3635 10.5272C13.31 10.5 13.24 10.5 13.1 10.5H6.9C6.75999 10.5 6.68998 10.5 6.6365 10.5272C6.58946 10.5512 6.55122 10.5895 6.52725 10.6365ZM15.2383 7.55945L15.2352 7.55833C15.2374 7.55904 15.2383 7.55943 15.2383 7.55945ZM15.4408 7.76241C15.4408 7.76238 15.4407 7.76193 15.4408 7.76241ZM15.4405 11.2383C15.4406 11.2383 15.4403 11.2389 15.4405 11.2383ZM15.2383 11.4405C15.2383 11.4406 15.2374 11.441 15.2352 11.4417L15.2383 11.4405ZM4.76175 11.4405L4.76478 11.4417C4.76264 11.441 4.76169 11.4406 4.76175 11.4405ZM4.55945 11.2383C4.55943 11.2383 4.55904 11.2374 4.55833 11.2352L4.55945 11.2383ZM4.55945 7.76175L4.55833 7.76478C4.55904 7.76264 4.55943 7.76169 4.55945 7.76175ZM4.76175 7.55945C4.76169 7.55943 4.76264 7.55904 4.76478 7.55833L4.76175 7.55945Z" fill="black"/>
</svg>

<svg viewBox="0 0 20 20" fill="none" xmlns="http://www.w3.org/2000/svg"><path d="M8 14a.5.5 0 0 1 .5-.5h2a.5.5 0 0 1 0 1h-2a.5.5 0 0 1-.5-.5Z" fill="#5C5F62"/><path d="M8.5 11.5a.5.5 0 0 0 0 1h3a.5.5 0 0 0 0-1h-3Z" fill="#5C5F62"/><path fill-rule="evenodd" clip-rule="evenodd" d="M15 6v.02c.392.023.67.077.908.198a2 2 0 0 1 .874.874c.218.428.218.988.218 2.108v.6c0 1.12 0 1.68-.218 2.108a2 2 0 0 1-.874.874c-.237.121-.516.175-.908.199v.96c0 .244 0 .509-.019.738-.02.26-.073.602-.254.956a2.5 2.5 0 0 1-1.092 1.092c-.354.18-.697.233-.956.254-.23.02-.494.02-.739.019h-3.88c-.245 0-.51 0-.739-.019a2.518 2.518 0 0 1-.956-.254 2.5 2.5 0 0 1-1.093-1.092 2.518 2.518 0 0 1-.253-.956c-.02-.23-.02-.494-.019-.739v-.96c-.392-.023-.67-.077-.908-.198a2 2 0 0 1-.874-.874c-.218-.428-.218-.988-.218-2.108v-.6c0-1.12 0-1.68.218-2.108a2 2 0 0 1 .874-.874c.238-.121.516-.175.908-.199v-.019c0-.988.013-1.506.218-1.908a2 2 0 0 1 .874-.874c.428-.218.988-.218 2.108-.218h3.6c1.12 0 1.68 0 2.108.218a2 2 0 0 1 .874.874c.205.402.217.92.218 1.908Zm-6.8-1.5h3.6c.585 0 .933.001 1.191.022.158.013.224.03.242.036a.5.5 0 0 1 .21.209c.005.018.022.084.035.242.018.227.021.524.022.991h-7c0-.467.004-.764.022-.991.013-.158.03-.224.036-.242a.5.5 0 0 1 .209-.21c.018-.005.084-.022.242-.035.258-.02.606-.022 1.191-.022Zm5.6 3c.585 0 .933.001 1.191.022.158.013.224.03.242.036a.5.5 0 0 1 .21.209c.005.018.022.084.035.242.02.258.022.606.022 1.191v.6c0 .585-.001.933-.022 1.191-.013.158-.03.224-.036.242a.5.5 0 0 1-.209.21 1.23 1.23 0 0 1-.233.034v-.591c0-.053 0-.165-.008-.272a1.753 1.753 0 0 0-.183-.658 1.75 1.75 0 0 0-.764-.765 1.752 1.752 0 0 0-.659-.183c-.106-.008-.22-.008-.272-.008h-6.227c-.054 0-.167 0-.273.008a1.752 1.752 0 0 0-.658.183 1.75 1.75 0 0 0-.765.765c-.14.273-.172.523-.183.658-.008.106-.008.22-.008.272v.591a1.23 1.23 0 0 1-.233-.035.5.5 0 0 1-.21-.209 1.255 1.255 0 0 1-.035-.242c-.02-.258-.022-.606-.022-1.191v-.6c0-.585.001-.933.022-1.191.013-.158.03-.224.036-.242a.5.5 0 0 1 .209-.21c.018-.005.084-.022.242-.035.258-.02.606-.022 1.191-.022h7.6Zm-.562-2.94-.003-.002.003.001Zm.203.202v.003-.003Zm-6.882 0v.003-.003Zm.203-.203h.003-.003Zm-.235 6.077c-.027.054-.027.124-.027.264v3c0 .56 0 .84.109 1.054a1 1 0 0 0 .437.437c.214.109.494.109 1.054.109h3.8c.56 0 .84 0 1.054-.109a1 1 0 0 0 .437-.437c.109-.214.109-.494.109-1.054v-3c0-.14 0-.21-.027-.264a.251.251 0 0 0-.11-.109c-.053-.027-.123-.027-.263-.027h-6.2c-.14 0-.21 0-.264.027a.25.25 0 0 0-.109.11Zm8.711-3.077h-.003.003Zm.203.203Zm0 3.476Zm-.203.203h-.003.003Zm-10.476 0h.003-.003Zm-.203-.203v-.003.003Zm0-3.476v.003-.003Zm.203-.203h.003-.003Z" fill="#5C5F62"/></svg>
